;FLAVOR:UltiGCode
;TIME:15272
;MATERIAL:39621
;MATERIAL2:0
;NOZZLE_DIAMETER:0.4
;Generated with Cura_SteamEngine 3.6.0
M82 ;absolute extrusion mode

G92 E0
G10
;LAYER_COUNT:57
;LAYER:0
M107
G0 F4320 X63.858 Y37.828 Z0.27
;TYPE:SKIRT
G11
G1 F1800 X64.288 Y37.162 E0.07492
G1 X64.784 Y36.542 E0.14995
G1 X65.34 Y35.976 E0.22492
G1 X65.949 Y35.468 E0.29987
G1 X66.607 Y35.024 E0.37488
G1 X67.306 Y34.648 E0.44989
G1 X68.039 Y34.345 E0.52484
G1 X68.799 Y34.117 E0.59982
G1 X69.578 Y33.967 E0.67479
G1 X70.678 Y33.89 E0.77899
G1 X152.322 Y33.89 E8.49435
G1 X153.114 Y33.93 E8.56929
G1 X153.899 Y34.049 E8.64432
G1 X154.667 Y34.247 E8.71927
G1 X155.412 Y34.522 E8.79432
G1 X156.125 Y34.869 E8.86925
G1 X156.8 Y35.287 E8.94428
G1 X157.429 Y35.77 E9.01922
G1 X158.006 Y36.315 E9.09423
G1 X158.526 Y36.914 E9.16919
G1 X159.142 Y37.828 E9.27334
G1 X199.394 Y107.563 E16.88232
G1 X199.756 Y108.27 E16.95738
G1 X200.045 Y109.009 E17.03237
G1 X200.257 Y109.773 E17.10729
G1 X200.392 Y110.555 E17.18229
G1 X200.448 Y111.347 E17.25732
G1 X200.423 Y112.14 E17.33229
G1 X200.319 Y112.926 E17.40722
G1 X200.136 Y113.698 E17.48219
G1 X199.876 Y114.448 E17.55721
G1 X199.394 Y115.437 E17.66117
G1 X159.142 Y185.172 E25.27015
G1 X158.712 Y185.838 E25.34507
G1 X158.216 Y186.458 E25.4201
G1 X157.66 Y187.024 E25.49508
G1 X157.051 Y187.532 E25.57002
G1 X156.393 Y187.976 E25.64503
G1 X155.694 Y188.352 E25.72004
G1 X154.961 Y188.655 E25.79499
G1 X154.201 Y188.883 E25.86997
G1 X153.422 Y189.033 E25.94494
G1 X152.322 Y189.11 E26.04915
G1 X70.678 Y189.11 E33.7645
G1 X69.886 Y189.07 E33.83944
G1 X69.101 Y188.951 E33.91447
G1 X68.333 Y188.753 E33.98942
G1 X67.588 Y188.478 E34.06447
G1 X66.875 Y188.131 E34.1394
G1 X66.2 Y187.713 E34.21443
G1 X65.571 Y187.23 E34.28937
G1 X64.994 Y186.685 E34.36438
G1 X64.474 Y186.086 E34.43934
G1 X63.858 Y185.172 E34.5435
G1 X23.606 Y115.437 E42.15247
G1 X23.244 Y114.73 E42.22753
G1 X22.955 Y113.991 E42.30252
G1 X22.743 Y113.227 E42.37745
G1 X22.608 Y112.445 E42.45244
G1 X22.552 Y111.653 E42.52747
G1 X22.577 Y110.86 E42.60244
G1 X22.681 Y110.074 E42.67737
G1 X22.864 Y109.302 E42.75234
G1 X23.124 Y108.552 E42.82736
G1 X23.606 Y107.563 E42.93133
G1 X63.858 Y37.828 E50.5403
G0 F4320 X64.161 Y38.003
G1 F1800 X64.583 Y37.352 E50.61362
G1 X65.069 Y36.748 E50.68688
G1 X65.615 Y36.198 E50.76012
G1 X66.215 Y35.706 E50.83344
G1 X66.863 Y35.279 E50.90678
G1 X67.551 Y34.921 E50.98007
G1 X68.272 Y34.635 E51.05337
G1 X69.019 Y34.425 E51.1267
G1 X69.783 Y34.293 E51.19996
G1 X70.678 Y34.24 E51.28469
G1 X152.322 Y34.24 E59.00005
G1 X153.097 Y34.28 E59.07338
G1 X153.863 Y34.399 E59.14664
G1 X154.613 Y34.597 E59.21994
G1 X155.339 Y34.871 E59.29327
G1 X156.032 Y35.218 E59.36651
G1 X156.686 Y35.635 E59.43981
G1 X157.294 Y36.117 E59.51313
G1 X157.849 Y36.659 E59.58644
G1 X158.346 Y37.255 E59.65977
G1 X158.839 Y38.003 E59.74443
G1 X199.091 Y107.738 E67.35341
G1 X199.444 Y108.429 E67.42673
G1 X199.723 Y109.152 E67.49997
G1 X199.927 Y109.901 E67.57333
G1 X200.053 Y110.666 E67.64659
G1 X200.099 Y111.441 E67.71996
G1 X200.065 Y112.215 E67.79317
G1 X199.951 Y112.983 E67.86655
G1 X199.76 Y113.734 E67.93977
G1 X199.491 Y114.462 E68.01312
G1 X199.091 Y115.262 E68.09764
G1 X158.839 Y184.997 E75.70662
G1 X158.417 Y185.648 E75.77993
G1 X157.931 Y186.252 E75.85319
G1 X157.385 Y186.802 E75.92643
G1 X156.785 Y187.294 E75.99975
G1 X156.137 Y187.721 E76.07309
G1 X155.449 Y188.079 E76.14638
G1 X154.728 Y188.365 E76.21968
G1 X153.981 Y188.575 E76.29301
G1 X153.217 Y188.707 E76.36628
G1 X152.322 Y188.76 E76.451
G1 X70.678 Y188.76 E84.16636
G1 X69.903 Y188.72 E84.23969
G1 X69.137 Y188.601 E84.31295
G1 X68.387 Y188.403 E84.38625
G1 X67.661 Y188.129 E84.45958
G1 X66.968 Y187.782 E84.53282
G1 X66.314 Y187.365 E84.60612
G1 X65.706 Y186.883 E84.67944
G1 X65.151 Y186.341 E84.75275
G1 X64.654 Y185.745 E84.82608
G1 X64.161 Y184.997 E84.91074
G1 X23.909 Y115.262 E92.51972
G1 X23.556 Y114.571 E92.59305
G1 X23.277 Y113.848 E92.66628
G1 X23.073 Y113.099 E92.73964
G1 X22.947 Y112.334 E92.81291
G1 X22.901 Y111.559 E92.88627
G1 X22.935 Y110.785 E92.95949
G1 X23.049 Y110.017 E93.03286
G1 X23.24 Y109.266 E93.10609
G1 X23.509 Y108.538 E93.17943
G1 X23.909 Y107.738 E93.26395
G1 X64.161 Y38.003 E100.87293
G0 F4320 X64.464 Y38.178
G1 F1800 X64.877 Y37.543 E100.94451
G1 X65.354 Y36.955 E101.01606
G1 X65.891 Y36.421 E101.08763
G1 X66.481 Y35.946 E101.15921
G1 X67.117 Y35.536 E101.23072
G1 X67.794 Y35.195 E101.30235
G1 X68.502 Y34.928 E101.37386
G1 X69.235 Y34.737 E101.44544
G1 X69.984 Y34.624 E101.51702
G1 X70.678 Y34.59 E101.58268
G1 X152.322 Y34.59 E109.29804
G1 X153.078 Y34.63 E109.36958
G1 X153.826 Y34.749 E109.44116
G1 X154.557 Y34.947 E109.51272
G1 X155.264 Y35.221 E109.58438
G1 X155.937 Y35.567 E109.65589
G1 X156.57 Y35.983 E109.72747
G1 X157.156 Y36.463 E109.79905
G1 X157.688 Y37.002 E109.87062
G1 X158.16 Y37.594 E109.94217
G1 X158.536 Y38.178 E110.00781
G1 X198.788 Y107.913 E117.61678
G1 X199.132 Y108.588 E117.68838
G1 X199.402 Y109.296 E117.75998
G1 X199.596 Y110.028 E117.83154
G1 X199.712 Y110.776 E117.90308
G1 X199.749 Y111.532 E117.9746
G1 X199.706 Y112.289 E118.04626
G1 X199.583 Y113.036 E118.1178
G1 X199.382 Y113.766 E118.18935
G1 X199.105 Y114.471 E118.26093
G1 X198.788 Y115.087 E118.3264
G1 X158.536 Y184.822 E125.93538
G1 X158.123 Y185.457 E126.00696
G1 X157.646 Y186.045 E126.07851
G1 X157.109 Y186.579 E126.15007
G1 X156.519 Y187.054 E126.22165
G1 X155.883 Y187.464 E126.29316
G1 X155.206 Y187.805 E126.3648
G1 X154.498 Y188.072 E126.4363
G1 X153.765 Y188.263 E126.50788
G1 X153.016 Y188.376 E126.57946
G1 X152.322 Y188.41 E126.64513
G1 X70.678 Y188.41 E134.36048
G1 X69.922 Y188.37 E134.43203
G1 X69.174 Y188.251 E134.5036
G1 X68.443 Y188.053 E134.57517
G1 X67.736 Y187.779 E134.64682
G1 X67.063 Y187.433 E134.71833
G1 X66.43 Y187.017 E134.78991
G1 X65.844 Y186.537 E134.8615
G1 X65.312 Y185.998 E134.93306
G1 X64.84 Y185.406 E135.00461
G1 X64.464 Y184.822 E135.07025
G1 X24.212 Y115.087 E142.67923
G1 X23.868 Y114.412 E142.75082
G1 X23.598 Y113.704 E142.82243
G1 X23.404 Y112.972 E142.89399
G1 X23.288 Y112.224 E142.96552
G1 X23.251 Y111.468 E143.03705
G1 X23.294 Y110.711 E143.1087
G1 X23.417 Y109.964 E143.18024
G1 X23.618 Y109.234 E143.25179
G1 X23.895 Y108.529 E143.32338
G1 X24.212 Y107.913 E143.38884
G1 X64.464 Y38.178 E150.99782
G0 F4320 X64.767 Y38.353
G1 F1800 X65.17 Y37.734 E151.06762
G1 X65.638 Y37.163 E151.13739
G1 X66.165 Y36.645 E151.20722
G1 X66.745 Y36.187 E151.27706
G1 X67.371 Y35.795 E151.34686
G1 X68.035 Y35.472 E151.41663
G1 X68.731 Y35.224 E151.48646
G1 X69.449 Y35.052 E151.55623
G1 X70.182 Y34.958 E151.62606
G1 X70.678 Y34.94 E151.67297
G1 X152.322 Y34.94 E159.38832
G1 X153.06 Y34.98 E159.45817
G1 X153.788 Y35.099 E159.52788
G1 X154.5 Y35.297 E159.59771
G1 X155.186 Y35.57 E159.66749
G1 X155.839 Y35.916 E159.73732
G1 X156.451 Y36.33 E159.80715
G1 X157.014 Y36.808 E159.87694
G1 X157.522 Y37.344 E159.94673
G1 X157.969 Y37.932 E160.01652
G1 X158.233 Y38.353 E160.06348
G1 X198.485 Y108.088 E167.67246
G1 X198.819 Y108.747 E167.74228
G1 X199.08 Y109.438 E167.81208
G1 X199.265 Y110.153 E167.88187
G1 X199.371 Y110.884 E167.95168
G1 X199.398 Y111.622 E168.02146
G1 X199.345 Y112.359 E168.09129
G1 X199.212 Y113.086 E168.16113
G1 X199.002 Y113.794 E168.23092
G1 X198.717 Y114.475 E168.30068
G1 X198.485 Y114.912 E168.34744
G1 X158.233 Y184.647 E175.95641
G1 X157.83 Y185.266 E176.02621
G1 X157.362 Y185.837 E176.09598
G1 X156.835 Y186.355 E176.16581
G1 X156.255 Y186.813 E176.23565
G1 X155.629 Y187.205 E176.30545
G1 X154.965 Y187.528 E176.37523
G1 X154.269 Y187.776 E176.44505
G1 X153.551 Y187.948 E176.51482
G1 X152.818 Y188.042 E176.58466
G1 X152.322 Y188.06 E176.63156
G1 X70.678 Y188.06 E184.34692
G1 X69.94 Y188.02 E184.41676
G1 X69.212 Y187.901 E184.48647
G1 X68.5 Y187.703 E184.55631
G1 X67.814 Y187.43 E184.62608
G1 X67.161 Y187.084 E184.69592
G1 X66.549 Y186.67 E184.76574
G1 X65.986 Y186.192 E184.83553
G1 X65.478 Y185.656 E184.90532
G1 X65.031 Y185.068 E184.97512
G1 X64.767 Y184.647 E185.02208
G1 X24.515 Y114.912 E192.63106
G1 X24.181 Y114.253 E192.70087
G1 X23.92 Y113.562 E192.77068
G1 X23.735 Y112.847 E192.84047
G1 X23.629 Y112.116 E192.91027
G1 X23.602 Y111.378 E192.98006
G1 X23.655 Y110.641 E193.04988
G1 X23.788 Y109.914 E193.11973
G1 X23.998 Y109.206 E193.18951
G1 X24.283 Y108.525 E193.25928
G1 X24.515 Y108.088 E193.30603
G1 X64.767 Y38.353 E200.91501
G0 F4320 X65.07 Y38.528
G1 F1800 X65.464 Y37.926 E200.983
G1 X65.922 Y37.371 E201.051
G1 X66.439 Y36.871 E201.11897
G1 X67.008 Y36.431 E201.18694
G1 X67.622 Y36.056 E201.25493
G1 X68.275 Y35.753 E201.32295
G1 X68.956 Y35.523 E201.39088
G1 X69.659 Y35.371 E201.45885
G1 X70.678 Y35.29 E201.55545
G1 X152.322 Y35.29 E209.27081
G1 X153.04 Y35.33 E209.33876
G1 X153.75 Y35.449 E209.40679
G1 X154.442 Y35.647 E209.47481
G1 X155.107 Y35.92 E209.54274
G1 X155.739 Y36.265 E209.61079
G1 X156.328 Y36.678 E209.67877
G1 X156.867 Y37.154 E209.74672
G1 X157.351 Y37.686 E209.81469
G1 X157.93 Y38.528 E209.91125
G1 X198.182 Y108.263 E217.52023
G1 X198.506 Y108.905 E217.58819
G1 X198.758 Y109.579 E217.65619
G1 X198.932 Y110.277 E217.72417
G1 X199.029 Y110.99 E217.79217
G1 X199.046 Y111.709 E217.86013
G1 X198.982 Y112.426 E217.92816
G1 X198.84 Y113.131 E217.99612
G1 X198.62 Y113.816 E218.06411
G1 X198.182 Y114.737 E218.16048
G1 X157.93 Y184.472 E225.76946
G1 X157.536 Y185.074 E225.83745
G1 X157.078 Y185.629 E225.90545
G1 X156.561 Y186.129 E225.97342
G1 X155.992 Y186.569 E226.04139
G1 X155.378 Y186.944 E226.10938
G1 X154.725 Y187.247 E226.17741
G1 X154.044 Y187.477 E226.24533
G1 X153.341 Y187.629 E226.3133
G1 X152.322 Y187.71 E226.4099
G1 X70.678 Y187.71 E234.12526
G1 X69.96 Y187.67 E234.19321
G1 X69.25 Y187.551 E234.26124
G1 X68.558 Y187.353 E234.32926
G1 X67.893 Y187.08 E234.39719
G1 X67.261 Y186.735 E234.46524
G1 X66.672 Y186.322 E234.53322
G1 X66.133 Y185.846 E234.60117
G1 X65.649 Y185.314 E234.66914
G1 X65.07 Y184.472 E234.76571
G1 X24.818 Y114.737 E242.37468
G1 X24.494 Y114.095 E242.44264
G1 X24.242 Y113.421 E242.51064
G1 X24.068 Y112.723 E242.57862
G1 X23.971 Y112.01 E242.64662
G1 X23.954 Y111.291 E242.71458
G1 X24.018 Y110.574 E242.78261
G1 X24.16 Y109.869 E242.85057
G1 X24.38 Y109.184 E242.91856
G1 X24.818 Y108.263 E243.01493
G1 X65.07 Y38.528 E250.62391
G0 F4320 X65.373 Y38.703
G1 F1800 X65.757 Y38.118 E250.69004
G1 X66.205 Y37.581 E250.75613
G1 X66.712 Y37.098 E250.8223
G1 X67.27 Y36.676 E250.88841
G1 X67.872 Y36.32 E250.9545
G1 X68.512 Y36.036 E251.02067
G1 X69.179 Y35.826 E251.08675
G1 X69.866 Y35.694 E251.15286
G1 X70.678 Y35.64 E251.22977
G1 X152.322 Y35.64 E258.94512
G1 X153.021 Y35.68 E259.01129
G1 X153.71 Y35.799 E259.07736
G1 X154.381 Y35.997 E259.14347
G1 X155.026 Y36.269 E259.20963
G1 X155.635 Y36.613 E259.27572
G1 X156.201 Y37.025 E259.34188
G1 X156.716 Y37.498 E259.40796
G1 X157.174 Y38.027 E259.47408
G1 X157.627 Y38.703 E259.55098
G1 X197.879 Y108.438 E267.15996
G1 X198.193 Y109.063 E267.22606
G1 X198.435 Y109.72 E267.29222
G1 X198.599 Y110.4 E267.35832
G1 X198.686 Y111.094 E267.42442
G1 X198.692 Y111.794 E267.49057
G1 X198.618 Y112.49 E267.55671
G1 X198.466 Y113.173 E267.62284
G1 X198.237 Y113.834 E267.68894
G1 X197.879 Y114.562 E267.76561
G1 X157.627 Y184.297 E275.37459
G1 X157.243 Y184.882 E275.44071
G1 X156.795 Y185.419 E275.5068
G1 X156.288 Y185.902 E275.57297
G1 X155.73 Y186.324 E275.63909
G1 X155.128 Y186.68 E275.70518
G1 X154.488 Y186.964 E275.77135
G1 X153.821 Y187.174 E275.83743
G1 X153.134 Y187.306 E275.90354
G1 X152.322 Y187.36 E275.98044
G1 X70.678 Y187.36 E283.6958
G1 X69.979 Y187.32 E283.76196
G1 X69.29 Y187.201 E283.82804
G1 X68.619 Y187.003 E283.89415
G1 X67.974 Y186.731 E283.9603
G1 X67.365 Y186.387 E284.0264
G1 X66.799 Y185.975 E284.09255
G1 X66.284 Y185.502 E284.15863
G1 X65.826 Y184.973 E284.22476
G1 X65.373 Y184.297 E284.30166
G1 X25.121 Y114.562 E291.91063
G1 X24.807 Y113.937 E291.97673
G1 X24.565 Y113.28 E292.04289
G1 X24.401 Y112.6 E292.109
G1 X24.314 Y111.906 E292.17509
G1 X24.308 Y111.206 E292.24125
G1 X24.382 Y110.51 E292.30739
G1 X24.534 Y109.827 E292.37351
G1 X24.763 Y109.166 E292.43962
G1 X25.121 Y108.438 E292.51628
G1 X65.373 Y38.703 E300.12526
G0 F4320 X65.676 Y38.878
G1 F1800 X66.05 Y38.311 E300.18945
G1 X66.488 Y37.791 E300.2537
G1 X66.984 Y37.326 E300.31795
G1 X67.53 Y36.923 E300.38208
G1 X68.121 Y36.587 E300.44632
G1 X68.747 Y36.323 E300.51052
G1 X69.399 Y36.133 E300.5747
G1 X70.069 Y36.022 E300.63888
G1 X70.678 Y35.99 E300.69651
G1 X152.322 Y35.99 E308.41187
G1 X153 Y36.03 E308.47605
G1 X153.669 Y36.149 E308.54026
G1 X154.319 Y36.346 E308.60444
G1 X154.942 Y36.618 E308.66869
G1 X155.528 Y36.962 E308.7329
G1 X156.07 Y37.372 E308.79712
G1 X156.56 Y37.842 E308.86128
G1 X156.991 Y38.367 E308.92547
G1 X157.324 Y38.878 E308.98311
G1 X197.576 Y108.613 E316.59209
G1 X197.88 Y109.22 E316.65624
G1 X198.111 Y109.859 E316.72045
G1 X198.265 Y110.521 E316.78468
G1 X198.341 Y111.196 E316.84887
G1 X198.337 Y111.876 E316.91313
G1 X198.253 Y112.55 E316.97732
G1 X198.09 Y113.209 E317.04147
G1 X197.851 Y113.845 E317.10568
G1 X197.576 Y114.387 E317.16311
G1 X157.324 Y184.122 E324.77209
G1 X156.95 Y184.689 E324.83628
G1 X156.512 Y185.209 E324.90053
G1 X156.016 Y185.674 E324.96478
G1 X155.47 Y186.077 E325.02891
G1 X154.879 Y186.413 E325.09315
G1 X154.253 Y186.677 E325.15735
G1 X153.601 Y186.867 E325.22153
G1 X152.931 Y186.978 E325.28571
G1 X152.322 Y187.01 E325.34334
G1 X70.678 Y187.01 E333.05869
G1 X70 Y186.97 E333.12288
G1 X69.331 Y186.851 E333.18709
G1 X68.681 Y186.654 E333.25127
G1 X68.058 Y186.382 E333.31551
G1 X67.472 Y186.038 E333.37973
G1 X66.93 Y185.628 E333.44395
G1 X66.44 Y185.158 E333.50811
G1 X66.009 Y184.633 E333.5723
G1 X65.676 Y184.122 E333.62994
G1 X25.424 Y114.387 E341.23892
G1 X25.12 Y113.78 E341.30307
G1 X24.889 Y113.141 E341.36728
G1 X24.735 Y112.479 E341.43151
G1 X24.659 Y111.804 E341.4957
G1 X24.663 Y111.124 E341.55996
G1 X24.747 Y110.45 E341.62415
G1 X24.91 Y109.791 E341.6883
G1 X25.149 Y109.155 E341.75251
G1 X25.424 Y108.613 E341.80994
G1 X65.676 Y38.878 E349.41892
G0 F4320 X65.98 Y39.053
G1 F1800 X66.343 Y38.504 E349.48111
G1 X66.77 Y38.002 E349.54339
G1 X67.254 Y37.557 E349.60553
G1 X67.789 Y37.173 E349.66776
G1 X68.367 Y36.857 E349.73001
G1 X68.979 Y36.613 E349.79227
G1 X69.616 Y36.445 E349.85453
G1 X70.268 Y36.356 E349.91671
G1 X70.678 Y36.34 E349.95548
G1 X152.322 Y36.34 E357.67084
G1 X152.979 Y36.38 E357.73304
G1 X153.627 Y36.499 E357.7953
G1 X154.255 Y36.696 E357.8575
G1 X154.855 Y36.968 E357.91976
G1 X155.418 Y37.31 E357.98201
G1 X155.935 Y37.718 E358.04424
G1 X156.398 Y38.185 E358.10639
G1 X156.802 Y38.706 E358.16869
G1 X157.02 Y39.053 E358.20742
G1 X197.272 Y108.788 E365.81639
G1 X197.566 Y109.377 E365.8786
G1 X197.787 Y109.998 E365.94089
G1 X197.93 Y110.64 E366.00305
G1 X197.995 Y111.296 E366.06535
G1 X197.98 Y111.954 E366.12754
G1 X197.885 Y112.606 E366.18981
G1 X197.712 Y113.241 E366.252
G1 X197.463 Y113.851 E366.31426
G1 X197.272 Y114.212 E366.35286
G1 X157.02 Y183.947 E373.96184
G1 X156.657 Y184.496 E374.02403
G1 X156.23 Y184.998 E374.08631
G1 X155.746 Y185.443 E374.14844
G1 X155.211 Y185.827 E374.21068
G1 X154.633 Y186.143 E374.27293
G1 X154.021 Y186.387 E374.33519
G1 X153.384 Y186.555 E374.39744
G1 X152.732 Y186.644 E374.45963
G1 X152.322 Y186.66 E374.4984
G1 X70.678 Y186.66 E382.21376
G1 X70.021 Y186.62 E382.27596
G1 X69.373 Y186.501 E382.33822
G1 X68.745 Y186.304 E382.40042
G1 X68.145 Y186.032 E382.46267
G1 X67.582 Y185.69 E382.52492
G1 X67.065 Y185.282 E382.58716
G1 X66.602 Y184.815 E382.64931
G1 X66.198 Y184.294 E382.71161
